icons/stars_two.svg

<svg width="37" height="36" viewBox="0 0 37 36" fill="none" xmlns="http://www.w3.org/2000/svg">
<path d="M19.9538 2.00179C19.3061 0.809953 17.6939 0.809948 17.0462 2.00179L12.4843 10.3954C12.1643 10.9841 11.6112 11.3859 10.9808 11.4875L2.43149 12.8661C0.995576 13.0977 0.491894 15.0333 1.61017 16.0224L7.97904 21.6559C8.56858 22.1773 8.84579 22.9999 8.70258 23.8028L7.03658 33.1436C6.77322 34.6202 8.22511 35.7674 9.47086 35.0671L17.5211 30.5416C18.1338 30.1972 18.8662 30.1972 19.4789 30.5416L27.5291 35.0671C28.7749 35.7674 30.2268 34.6202 29.9634 33.1436L28.2974 23.8028C28.1542 22.9999 28.4314 22.1773 29.021 21.6559L35.3898 16.0224C36.5081 15.0333 36.0044 13.0977 34.5685 12.8661L26.0192 11.4875C25.3888 11.3859 24.8357 10.9841 24.5157 10.3954L19.9538 2.00179Z" fill="white" stroke="#F6CA47" stroke-linejoin="round"/>
</svg>

<svg width="37" height="36" fill="none" xmlns="http://www.w3.org/2000/svg"><path d="M19.954 2.002c-.648-1.192-2.26-1.192-2.908 0l-4.562 8.393c-.32.59-.873.99-1.503 1.093l-8.55 1.378c-1.435.232-1.94 2.167-.82 3.156l6.368 5.634c.59.521.867 1.344.724 2.147l-1.666 9.34c-.264 1.477 1.188 2.624 2.434 1.924l8.05-4.525a1.984 1.984 0 0 1 1.958 0l8.05 4.525c1.246.7 2.698-.447 2.434-1.923l-1.666-9.341c-.143-.803.134-1.626.724-2.147l6.369-5.634c1.118-.989.614-2.924-.822-3.156l-8.549-1.378a2.104 2.104 0 0 1-1.503-1.093l-4.562-8.393Z" fill="#fff" stroke="#F6CA47" stroke-linejoin="round"/></svg>
